flash-vue-admin/src/icons/svg/dashboard.svg

<?xml version="1.0" standalone="no"?><!DOCTYPE svg PUBLIC "-//W3C//DTD SVG 1.1//EN" "http://www.w3.org/Graphics/SVG/1.1/DTD/svg11.dtd"><svg t="1509611822979" class="icon" style="" viewBox="0 0 1024 1024" version="1.1" xmlns="http://www.w3.org/2000/svg" p-id="10379" xmlns:xlink="http://www.w3.org/1999/xlink" width="32" height="32"><defs><style type="text/css"></style></defs><path d="M219.428571 658.285714q0-30.285714-21.428571-51.714285T146.285714 585.142857t-51.714285 21.428572T73.142857 658.285714t21.428572 51.714286T146.285714 731.428571t51.714286-21.428571T219.428571 658.285714z m109.714286-256q0-30.285714-21.428571-51.714285T256 329.142857t-51.714286 21.428572T182.857143 402.285714t21.428571 51.714286T256 475.428571t51.714286-21.428571T329.142857 402.285714z m244.571429 274.857143l57.714285-218.285714q3.428571-14.857143-4.285714-27.714286T605.142857 414.285714t-27.428571 3.714286-17.142857 22.571429l-57.714286 218.285714q-34.285714 2.857143-61.142857 24.857143t-36 56.285714q-11.428571 44 11.428571 83.428571t66.857143 50.857143 83.428571-11.428571 50.857143-66.857143q9.142857-34.285714-3.428571-66.857143t-41.142857-52z m377.142857-18.857143q0-30.285714-21.428572-51.714285T877.714286 585.142857t-51.714286 21.428572-21.428571 51.714285 21.428571 51.714286 51.714286 21.428571 51.714285-21.428571 21.428572-51.714286z m-365.714286-365.714285q0-30.285714-21.428571-51.714286T512 219.428571t-51.714286 21.428572T438.857143 292.571429t21.428571 51.714285T512 365.714286t51.714286-21.428572T585.142857 292.571429z m256 109.714285q0-30.285714-21.428571-51.714285T768 329.142857t-51.714286 21.428572T694.857143 402.285714t21.428571 51.714286T768 475.428571t51.714286-21.428571T841.142857 402.285714z m182.857143 256q0 149.142857-80.571429 276-10.857143 16.571429-30.857142 16.571429H111.428571q-20 0-30.857142-16.571429Q0 808 0 658.285714q0-104 40.571429-198.857143t109.142857-163.428571 163.428571-109.142857 198.857143-40.571429 198.857143 40.571429 163.428571 109.142857 109.142857 163.428571 40.571429 198.857143z" p-id="10380"></path></svg>

<svg class="icon" viewBox="0 0 1024 1024" xmlns="http://www.w3.org/2000/svg" width="32" height="32"><defs><style/></defs><path d="M219.429 658.286q0-30.286-21.429-51.715t-51.714-21.428T94.57 606.57t-21.428 51.715T94.57 710t51.715 21.429T198 710t21.429-51.714zm109.714-256q0-30.286-21.429-51.715T256 329.143t-51.714 21.428-21.429 51.715T204.286 454 256 475.429 307.714 454t21.429-51.714zm244.571 274.857l57.715-218.286q3.428-14.857-4.286-27.714t-22-16.857T577.714 418t-17.143 22.571l-57.714 218.286q-34.286 2.857-61.143 24.857t-36 56.286q-11.428 44 11.429 83.429T484 874.286t83.429-11.429T618.286 796q9.143-34.286-3.429-66.857t-41.143-52zm377.143-18.857q0-30.286-21.428-51.715t-51.715-21.428T826 606.57t-21.429 51.715T826 710t51.714 21.429T929.43 710t21.428-51.714zM585.143 292.57q0-30.285-21.429-51.714T512 219.43t-51.714 21.428-21.429 51.714 21.429 51.715T512 365.714t51.714-21.428 21.429-51.715zm256 109.715q0-30.286-21.429-51.715T768 329.143t-51.714 21.428-21.429 51.715T716.286 454 768 475.429 819.714 454t21.429-51.714zm182.857 256q0 149.143-80.571 276-10.858 16.571-30.858 16.571H111.43q-20 0-30.858-16.571Q0 808 0 658.286q0-104 40.571-198.857T149.714 296t163.429-109.143T512 146.286t198.857 40.571T874.286 296t109.143 163.429T1024 658.286z"/></svg>
